X:2273
T:Souree 
C:John Quayle, Gordon, Patrick
C:Traditional
O:Isle of Man
Z:Clague collection
B:Kiaull Vannin #273 
M:6/8 
L:1/8
Q:130 
K:D 
B/A/|G3 F2E|A2F D2E|F2G E2E|(E3E2) F|G2A B2c|d2c B2A|A2A d2c|B3-B2 E| 
G2A B2c|d3 B2B|e2e d2c|B3 B2B/A/|G3 F2E|A2F D2E|F2 G E2E|E3-E2|| 

